icon-themes/breeze_svg/cmd/lc_defaultbullet.svg

<svg viewBox="0 0 24 24" xmlns="http://www.w3.org/2000/svg"><path d="m11 4v1h9v-1zm0 2v1h6v-1zm0 4v1h9v-1zm0 2v1h2v-1zm0 4v1h9v-1zm0 2v1h6v-1zm7 1v1h2v-1z" fill="#4d4d4d"/><path d="m5 4a1 1 0 0 0 -1 1 1 1 0 0 0 1 1 1 1 0 0 0 1-1 1 1 0 0 0 -1-1zm0 6a1 1 0 0 0 -1 1 1 1 0 0 0 1 1 1 1 0 0 0 1-1 1 1 0 0 0 -1-1zm0 6a1 1 0 0 0 -1 1 1 1 0 0 0 1 1 1 1 0 0 0 1-1 1 1 0 0 0 -1-1z" fill="#1d99f3"/></svg>

<svg xmlns="http://www.w3.org/2000/svg" viewBox="0 0 24 24">
 <path 
     style="fill:#4d4d4d" 
     d="M 11 4 L 11 5 L 20 5 L 20 4 L 11 4 z M 11 6 L 11 7 L 17 7 L 17 6 L 11 6 z M 11 10 L 11 11 L 20 11 L 20 10 L 11 10 z M 11 12 L 11 13 L 13 13 L 13 12 L 11 12 z M 11 16 L 11 17 L 20 17 L 20 16 L 11 16 z M 11 18 L 11 19 L 17 19 L 17 18 L 11 18 z M 18 19 L 18 20 L 20 20 L 20 19 L 18 19 z "
     />
 <path 
     style="fill:#1d99f3" 
     d="M 5 4 A 1 1 0 0 0 4 5 A 1 1 0 0 0 5 6 A 1 1 0 0 0 6 5 A 1 1 0 0 0 5 4 z M 5 10 A 1 1 0 0 0 4 11 A 1 1 0 0 0 5 12 A 1 1 0 0 0 6 11 A 1 1 0 0 0 5 10 z M 5 16 A 1 1 0 0 0 4 17 A 1 1 0 0 0 5 18 A 1 1 0 0 0 6 17 A 1 1 0 0 0 5 16 z "
     />
 </svg>
